front/svg/symbols/main/share-line.svg

<?xml version="1.0" encoding="UTF-8" standalone="no"?>
<svg version="1.1" xmlns="http://www.w3.org/2000/svg" xmlns:xlink="http://www.w3.org/1999/xlink" viewBox="0 0 32 32" preserveAspectRatio="xMinYMin meet">
	<g stroke="none" stroke-width="1" fill="none" fill-rule="evenodd">
		<path d="M26.838256,14.810375 C26.838256,9.95255 21.939824,6 15.919216,6 C9.898608,6 5,9.95255 5,14.810375 C5,19.1656 8.88432,22.813475 14.132112,23.503325 C14.48728,23.57945 14.97128,23.736775 15.0936,24.03865 C15.204128,24.313225 15.166112,24.7425 15.128976,25.0204 C15.128976,25.0204 15.0012,25.786375 14.973392,25.94965 C14.925872,26.224225 14.753392,27.0231 15.919216,26.535025 C17.084336,26.047125 22.206992,22.8532 24.497808,20.231 L24.49728,20.23135 C26.080224,18.506025 26.838256,16.754975 26.838256,14.810375 L26.838256,14.810375 Z M11.645056,17.7012 L9.475328,17.7012 C9.159584,17.7012 8.903152,17.445525 8.903152,17.1314 L8.903152,12.817125 C8.903152,12.503175 9.159584,12.247675 9.475328,12.247675 C9.791072,12.247675 10.048032,12.503175 10.048032,12.817125 L10.048032,16.562125 L11.645056,16.562125 C11.9608,16.562125 12.217232,16.817625 12.217232,17.1314 C12.217232,17.445525 11.9608,17.7012 11.645056,17.7012 L11.645056,17.7012 Z M13.88888,17.1314 C13.88888,17.445525 13.632448,17.7012 13.316704,17.7012 C13.000784,17.7012 12.744352,17.445525 12.744352,17.1314 L12.744352,12.817125 C12.744352,12.503175 13.000784,12.247675 13.316704,12.247675 C13.632448,12.247675 13.88888,12.503175 13.88888,12.817125 L13.88888,17.1314 L13.88888,17.1314 Z M19.111152,17.1314 C19.111152,17.3771 18.954512,17.594275 18.719904,17.67145 C18.66112,17.69105 18.599872,17.7012 18.53792,17.7012 C18.359456,17.7012 18.188736,17.615625 18.080672,17.47335 L15.85744,14.46265 L15.85744,17.1314 C15.85744,17.445525 15.601008,17.7012 15.284736,17.7012 C14.968992,17.7012 14.712384,17.445525 14.712384,17.1314 L14.712384,12.817125 C14.712384,12.571775 14.869552,12.3546 15.103104,12.2769 C15.162416,12.257125 15.22384,12.247675 15.285264,12.247675 C15.463904,12.247675 15.635328,12.3329 15.742688,12.47535 L17.966272,15.486225 L17.966272,12.817125 C17.966272,12.503175 18.223232,12.247675 18.538976,12.247675 C18.85472,12.247675 19.111152,12.503175 19.111152,12.817125 L19.111152,17.1314 L19.111152,17.1314 Z M22.622,14.405075 C22.937744,14.405075 23.194704,14.6604 23.194704,14.9747 C23.194704,15.288125 22.937744,15.543625 22.622,15.543625 L21.024976,15.543625 L21.024976,16.562125 L22.622,16.562125 C22.937744,16.562125 23.194704,16.817625 23.194704,17.1314 C23.194704,17.445525 22.937744,17.7012 22.622,17.7012 L20.452272,17.7012 C20.137056,17.7012 19.880096,17.445525 19.880096,17.1314 L19.880096,12.817125 C19.880096,12.503175 20.136528,12.247675 20.452272,12.247675 L22.622,12.247675 C22.937744,12.247675 23.194704,12.503175 23.194704,12.817125 C23.194704,13.1309 22.937744,13.386225 22.622,13.386225 L21.024976,13.386225 L21.024976,14.405075 L22.622,14.405075 L22.622,14.405075 Z" id="Imported-Layers" fill="#00C300"></path>
	</g>
</svg>

<svg xmlns="http://www.w3.org/2000/svg" viewBox="0 0 32 32" preserveAspectRatio="xMinYMin meet"><path d="M26.838 14.81c0-4.857-4.898-8.81-10.92-8.81C9.9 6 5 9.953 5 14.81c0 4.356 3.884 8.003 9.132 8.693.355.076.84.234.962.536.11.273.072.703.035.98l-.157.93c-.047.274-.22 1.073.946.585 1.164-.488 6.287-3.682 8.578-6.304 1.582-1.724 2.34-3.475 2.34-5.42zM11.645 17.7h-2.17c-.315 0-.572-.254-.572-.57v-4.313c0-.314.257-.57.572-.57.316 0 .573.256.573.57v3.745h1.597c.316 0 .572.256.572.57 0 .314-.256.57-.572.57zm2.244-.57c0 .316-.258.57-.573.57-.316 0-.573-.254-.573-.57v-4.313c0-.314.257-.57.573-.57.315 0 .572.256.572.57v4.314zm5.22 0c0 .247-.155.464-.39.54-.06.02-.12.03-.182.03-.18 0-.35-.084-.457-.227l-2.223-3.01v2.668c0 .316-.256.57-.572.57-.316 0-.573-.254-.573-.57v-4.313c0-.245.158-.462.39-.54.06-.02.122-.03.183-.03.18 0 .35.086.458.228l2.223 3.01v-2.668c0-.314.257-.57.573-.57.315 0 .57.256.57.57v4.314zm3.512-2.725c.316 0 .573.255.573.57 0 .313-.257.57-.573.57h-1.597v1.017h1.597c.316 0 .573.256.573.57 0 .314-.257.57-.573.57h-2.17c-.315 0-.572-.256-.572-.57v-4.315c0-.314.257-.57.572-.57h2.17c.316 0 .573.256.573.57 0 .314-.257.57-.573.57h-1.597v1.018h1.597z" fill="#00C300" fill-rule="evenodd"/></svg>
